Newaita/actions/22/configure.svg

<?xml version="1.0" encoding="UTF-8"?>
<svg xmlns="http://www.w3.org/2000/svg" xmlns:xlink="http://www.w3.org/1999/xlink" width="22pt" height="22pt" viewBox="0 0 22 22" version="1.1">
<g id="surface1">
<path style=" stroke:none;fill-rule:nonzero;fill:rgb(25.882354%,25.882354%,25.882354%);fill-opacity:1;" d="M 20.921875 11.085938 C 20.921875 10.710938 20.617188 10.40625 20.238281 10.40625 L 18.105469 10.40625 C 18.164062 10.621094 18.191406 10.851562 18.191406 11.085938 C 18.191406 11.324219 18.164062 11.550781 18.105469 11.769531 L 20.238281 11.769531 C 20.617188 11.769531 20.921875 11.464844 20.921875 11.085938 Z M 12.820312 10.40625 L 1.589844 10.40625 C 1.214844 10.40625 0.910156 10.710938 0.910156 11.085938 C 0.910156 11.464844 1.214844 11.769531 1.589844 11.769531 L 12.820312 11.769531 C 12.765625 11.550781 12.734375 11.324219 12.734375 11.085938 C 12.734375 10.851562 12.765625 10.621094 12.820312 10.40625 Z M 12.820312 10.40625 "/>
<path style=" stroke:none;fill-rule:nonzero;fill:rgb(25.882354%,25.882354%,25.882354%);fill-opacity:1;" d="M 20.921875 4.492188 C 20.921875 4.113281 20.617188 3.808594 20.238281 3.808594 L 13.558594 3.808594 C 13.613281 4.027344 13.644531 4.257812 13.644531 4.492188 C 13.644531 4.726562 13.613281 4.957031 13.558594 5.175781 L 20.238281 5.175781 C 20.617188 5.175781 20.921875 4.871094 20.921875 4.492188 Z M 8.273438 3.808594 L 1.589844 3.808594 C 1.214844 3.808594 0.910156 4.113281 0.910156 4.492188 C 0.910156 4.871094 1.214844 5.175781 1.589844 5.175781 L 8.273438 5.175781 C 8.214844 4.957031 8.1875 4.726562 8.1875 4.492188 C 8.1875 4.257812 8.214844 4.027344 8.273438 3.808594 Z M 8.273438 3.808594 "/>
<path style=" stroke:none;fill-rule:nonzero;fill:rgb(25.882354%,25.882354%,25.882354%);fill-opacity:1;" d="M 20.921875 17.679688 C 20.921875 17.304688 20.617188 17 20.238281 17 L 9.011719 17 C 9.066406 17.21875 9.097656 17.445312 9.097656 17.679688 C 9.097656 17.917969 9.066406 18.144531 9.011719 18.363281 L 20.238281 18.363281 C 20.617188 18.363281 20.921875 18.058594 20.921875 17.679688 Z M 3.722656 17 L 1.589844 17 C 1.214844 17 0.910156 17.304688 0.910156 17.679688 C 0.910156 18.058594 1.214844 18.363281 1.589844 18.363281 L 3.722656 18.363281 C 3.667969 18.144531 3.636719 17.917969 3.636719 17.679688 C 3.636719 17.445312 3.667969 17.21875 3.722656 17 Z M 3.722656 17 "/>
<path style=" stroke:none;fill-rule:nonzero;fill:rgb(36.078432%,41.960785%,75.294119%);fill-opacity:1;" d="M 18.191406 11.085938 C 18.191406 9.574219 16.976562 8.359375 15.464844 8.359375 C 13.953125 8.359375 12.734375 9.574219 12.734375 11.085938 C 12.734375 12.597656 13.953125 13.816406 15.464844 13.816406 C 16.976562 13.816406 18.191406 12.597656 18.191406 11.085938 Z M 16.828125 11.085938 C 16.828125 11.84375 16.21875 12.453125 15.464844 12.453125 C 14.707031 12.453125 14.097656 11.84375 14.097656 11.085938 C 14.097656 10.332031 14.707031 9.722656 15.464844 9.722656 C 16.21875 9.722656 16.828125 10.332031 16.828125 11.085938 Z M 16.828125 11.085938 "/>
<path style=" stroke:none;fill-rule:nonzero;fill:rgb(36.078432%,41.960785%,75.294119%);fill-opacity:1;" d="M 13.644531 4.492188 C 13.644531 2.980469 12.425781 1.765625 10.914062 1.765625 C 9.402344 1.765625 8.1875 2.980469 8.1875 4.492188 C 8.1875 6.003906 9.402344 7.222656 10.914062 7.222656 C 12.425781 7.222656 13.644531 6.003906 13.644531 4.492188 Z M 12.28125 4.492188 C 12.28125 5.25 11.671875 5.855469 10.914062 5.855469 C 10.160156 5.855469 9.550781 5.25 9.550781 4.492188 C 9.550781 3.738281 10.160156 3.128906 10.914062 3.128906 C 11.671875 3.128906 12.28125 3.738281 12.28125 4.492188 Z M 12.28125 4.492188 "/>
<path style=" stroke:none;fill-rule:nonzero;fill:rgb(36.078432%,41.960785%,75.294119%);fill-opacity:1;" d="M 9.097656 17.679688 C 9.097656 16.167969 7.878906 14.953125 6.367188 14.953125 C 4.855469 14.953125 3.636719 16.167969 3.636719 17.679688 C 3.636719 19.191406 4.855469 20.410156 6.367188 20.410156 C 7.878906 20.410156 9.097656 19.191406 9.097656 17.679688 Z M 7.730469 17.679688 C 7.730469 18.4375 7.121094 19.046875 6.367188 19.046875 C 5.609375 19.046875 5.003906 18.4375 5.003906 17.679688 C 5.003906 16.925781 5.609375 16.316406 6.367188 16.316406 C 7.121094 16.316406 7.730469 16.925781 7.730469 17.679688 Z M 7.730469 17.679688 "/>
</g>
</svg>

<svg xmlns="http://www.w3.org/2000/svg" width="22pt" height="22pt" viewBox="0 0 22 22"><path d="M20.922 11.086a.681.681 0 0 0-.684-.68h-2.133c.06.215.086.446.086.68 0 .238-.027.465-.086.684h2.133a.682.682 0 0 0 .684-.684zm-8.102-.68H1.59a.681.681 0 1 0 0 1.363h11.23a2.77 2.77 0 0 1 0-1.363zm0 0M20.922 4.492a.682.682 0 0 0-.684-.683h-6.68c.055.218.087.449.087.683 0 .235-.032.465-.086.684h6.68a.682.682 0 0 0 .683-.684zM8.273 3.81H1.59a.681.681 0 0 0-.68.683c0 .38.305.684.68.684h6.683a2.644 2.644 0 0 1-.085-.684c0-.234.027-.465.085-.683zm0 0M20.922 17.68a.681.681 0 0 0-.684-.68H9.012c.054.219.086.445.086.68a2.8 2.8 0 0 1-.086.683h11.226a.682.682 0 0 0 .684-.683zM3.722 17H1.59a.681.681 0 1 0 0 1.363h2.133a2.8 2.8 0 0 1-.086-.683c0-.235.031-.461.086-.68zm0 0" fill="#424242"/><path d="M18.191 11.086a2.72 2.72 0 0 0-2.726-2.727 2.722 2.722 0 0 0-2.73 2.727 2.726 2.726 0 0 0 2.73 2.73 2.722 2.722 0 0 0 2.726-2.73zm-1.363 0c0 .758-.61 1.367-1.363 1.367-.758 0-1.367-.61-1.367-1.367 0-.754.609-1.363 1.367-1.363.754 0 1.363.609 1.363 1.363zm0 0M13.645 4.492a2.722 2.722 0 0 0-2.73-2.726 2.72 2.72 0 0 0-2.727 2.726 2.722 2.722 0 0 0 2.726 2.73 2.726 2.726 0 0 0 2.73-2.73zm-1.364 0a1.36 1.36 0 0 1-1.367 1.363 1.36 1.36 0 0 1-1.363-1.363c0-.754.61-1.363 1.363-1.363.758 0 1.367.61 1.367 1.363zm0 0M9.098 17.68a2.722 2.722 0 0 0-2.73-2.727 2.722 2.722 0 0 0-2.731 2.727 2.726 2.726 0 0 0 2.73 2.73 2.726 2.726 0 0 0 2.73-2.73zm-1.368 0a1.363 1.363 0 1 1-2.726 0 1.36 1.36 0 0 1 1.363-1.364c.754 0 1.363.61 1.363 1.364zm0 0" fill="#5c6bc0"/></svg>
